X:1
T:Psalm 107
T:V 21
L:1/4
M:14/4
I:linebreak $
K:C
V:1 treble nm="Pipe Organ" snm="Org."
V:1
 D2 D2 A2 d d c2 A3 z |$[M:12/4] A2 _B A F2 G2 F3 z |$[M:14/4] D2 D2 A2 d d c2 A3 z |$ %3
w: Wie wys is, merk die ding- e|en gee god- vrug- tig ag|op al Gods han- de- ling- e,|
[M:12/4] F2 G A F2 E2 D3 z |] %4
w: sy goed- heid en sy mag.|

